X:1
T:Herzliebster Jesu
T:Herzliebster Jesu
T:André Vierendeels (23/08/09)
C:André Vierendeels
C:(23/08/09)
%%score [ 1 2 3 4 ]
L:1/8
Q:1/4=120
M:2/2
K:Bb
V:1 treble nm="Soprano"
V:2 treble nm="Alto"
V:3 treble-8 nm="Tenor"
V:4 bass nm="Bass"
V:1
"^Melody from XVIth century" G4 G4 | G4 ^F4 | D4 G4 | A4 B4 | B4 c4 | B4 A4 | A4 B4 | c4 d2 c2 | %8
w: Herz- lieb-|ster Je-|su! was|hast du|ver- bro-|* chen,|dass man|ein solch _|
 B4 e4 | e4 d4 | _d2 c2 c4- | c4 B4 | B4 A4 | G4 F4 | D2 E2 F4 | F4 G4 | F4 E4- | E4 D4 | d4 c4 | %19
w: scharf Ur-|teil hat|ge- * spro-|* chen?|Was ist|die Schuld?|in _ was|für Mis-|se- that-|* ten|bist du|
 B2 A2 A4- | A4 G4- | G8 |] %22
w: ge- * ra-|* then?|_|
V:2
 D4 E4 | C4 D4 | A,2 B,2 D4 | C2 D2 D4 | =E2 D4 _E2 | G2 E2 F4 | F2 D4 G2 | =E2 F2 G4 | F2 E4 G2- | %9
w: Herz- lieb-|ster Je-|su! _ was|hast _ du|ver- bro- *|* * chen,|dass man ein|solch _ _|sharf Ur- tel|
 G2 E4 F2 | G4 A2 G2 | A4 F4 | G4 E2 F2 | =E4 D4 | A,4 D4 | B,4 C2 B,2 | C4 C2 D2 | C4 B,4 | %18
w: _ hat _|ge- spro- *|* chen?|Was ist _|die Schuld?|in was|für Mis- *|se- tha- *|* ten|
 B3 G A4 | G2 ^F2 =E2 G2 | ^F4 [DG]4- | [DG]8 |] %22
w: bist _ du|ge- * ra- *|* then?|_|
V:3
 B4 c2 B2 | c2 G2 A2 ^F2- | F2 G4 =F2 | F4 G4 | c2 B2 A2 c2 | d3 c d4 | A2 B4 d2 | c2 A2 B2 e2 | %8
w: Herz- lieb- *|ster _ Je- *|* su! was|hast du|ver- * bro- *|* * chen,|das man ein|solch _ scharf _|
 d2 c4 B2 | c4 A4 | B4 A2 B2 | c4 d4 | d4 B2 A2 | A2 G2 A4 | F4 F4 | B4 G4 | A4 G2 B2 | F4 F4 | %18
w: _ Ur- teil|hat _|ge- spro- *|* chen?|Was ist- *|die _ Schuld?|in was|für Mis-|se- ta- *|* ten|
 G3 B d2 e2 | d2 c2 A2 B2 | d2 c2 =B4- | B8 |] %22
w: bist _ du _|ge- * ra- *|* * then?|_|
V:4
 G,4 C,2 D,2 | E,4 D,4 | C,4 B,,4 | A,,4 G,,4 | G,4 ^F,4 | G,4 D,4 | D,4 G,4 | G,2 F,2 B,4 | %8
w: Herz- lieb- *|ster Je-|su was|hast du|ver- bro-|* chen,|dass man|ein _ solch|
 _A,4 G,4 | _G,4 F,4 | =E,4 F,4- | F,4 B,,4 | G,,4 C,4 | ^C,4 D,4 | D,2 C,2 B,,2 C,2 | %15
w: scharf Ur-|teil hat|ge- spro-|* chen?|Was ist|die Schuld?|in _ was _|
 D,2 B,,2 E,4 | F,2 F,,2 G,,4 | A,,4 B,,4 | G,4 ^F,4 | G,4 C,4 | D,4 G,,4- | G,,8 |] %22
w: für _ Mis-|se- * tha-|* ten|bist du|ge- ra-|* then?|_|

